X:64
T:Flow My Tears (Lachrymae)
T:AABBC
Z:Jack Campin, http://www.campin.me.uk/
F:Jack Campin's Nine-Note Tunebook
% last edit 03-02-2013
C:John Dowland
M:2/2
L:1/8
Q:1/4=100
P:AABBC
K:GMin
P:A
G6 FE|D4 B4-|B4 A2 G2 |^F2 G4 F2|G4 D4-|D2 D2 F2 F2|E4 C4|D6
A2|B4 G4|A4 ^F4|G2 B3 A G2|^F4 B4|A2 G2 G4-|G2 ^F=E F4|G8-|G8||
P:B
B4 B2 A2|G2 F2 B4-|B2 AG ABcA|B4 F4|z2 G4 ^F2|G2 E2 D4|
z2 CD E4|z2 EF G4|z2 GA B4|z2 FG AGAB|c4
z2 CD|ECEF G4|z2 B4 A2|B3 A GF G2|^F8-|F8||
P:C
F6 G2|A2 GA B4|A2 G2 G4-|G4 ^F4|G6 B2|A2 B2 G4|^F8|
z8| z4 d4-|d2 A2 c4-|c2 G2 B4|A4 G4|^F4 B4| A2 G2 G4-|G2 ^F=E F4|G8-|G8|]

